X:1
T:Vocem jucunditatis
T:Heinrich Isaac edit BMarble
T:Vocem jucunditatis
T:Copyright © 2017 by CPDL.  This edition can be fully distributed, duplicated, performed, and recorded. 
T:Copyright © 2017 by CPDL.  This edition can be fully distributed, duplicated, performed, and recorded. 
T:Copyright © 2017 by CPDL.  This edition can be fully distributed, duplicated, performed, and recorded. 
T:Copyright © 2017 by CPDL.  This edition can be fully distributed, duplicated, performed, and recorded. 
T:Copyright © 2017 by CPDL.  This edition can be fully distributed, duplicated, performed, and recorded. 
T:Copyright © 2017 by CPDL.  This edition can be fully distributed, duplicated, performed, and recorded. 
T:Copyright © 2017 by CPDL.  This edition can be fully distributed, duplicated, performed, and recorded. 
T:Copyright © 2017 by CPDL.  This edition can be fully distributed, duplicated, performed, and recorded. 
T:Copyright © 2017 by CPDL.  This edition can be fully distributed, duplicated, performed, and recorded. 
T:Copyright © 2017 by CPDL.  This edition can be fully distributed, duplicated, performed, and recorded. 
T:Copyright © 2017 by CPDL.  This edition can be fully distributed, duplicated, performed, and recorded. 
C:Heinrich Isaac
C:edit BMarble
Z:Copyright © 2017 by CPDL.  This edition can be fully distributed, duplicated, performed, and recorded.
Z:
%%score [ 1 2 3 4 ]
L:1/8
Q:1/2=104
M:4/4
K:Eb
V:1 treble nm="Soprano" snm="S."
V:2 treble nm="Alto" snm="A."
V:3 treble-8 transpose=-12 nm="Tenor" snm="T."
V:4 bass nm="Baritone" snm="Bar."
V:1
"^Introit 5th Sunday Easter" z32 ||[M:4/2] (c8 e8) | e8 c8 | (c8 B8) | B8 c8 | B4 A8 G4 | %6
w: |an- *|nun- ti-|a- *|te, an-|nun- ti- a-|
 A8 z4 A4 | (G4 A4 B8) | (c4 e8 d2 c2 | B8) G8 | (A8 B8 | A8) F4 A4- | (A2 G2 F8) =E4 | F8 z8 | %14
w: te et|au- * *|di- * * *|* a-|tur, _|_ au- di-|* * * a-|tur.|
 A8 F4 B4- | (B4 A4) G4 B4- | B2 A2 A8 G4 | A8 z8 | A8 (F8 | B8) G6 A2 | B4 c8 =B4 | c16- | c16- | %23
w: Al- le- lu-|* * ia, al-|* * le- lu-|ia.|nun- ti-|* a- *||te|_|
 c16- | c16 | z16 | z16 | z16 | z16 | z16 | z16 | z16 | z8 (B8 | c8) e8 | e8 e8 | e6 d2 c2 B2 c4- | %36
w: |||||||||Li-|* be-|ra- vit|Do- * * * *|
 c2 B2 B8 =A4 | B16 | z16 | z16 | (B8 e6) d2 | c4 (B8 =A4) | B8 z8 | z8 B8 | c4 e8 d4 || %45
w: * * * mi-|nus|||po- * pu-|lum su- *|um,|po-|pu- lum su-|
[M:3/2] e12 | z4 z4 d4 | (e6 d2 c4) | (B6 A2 G2 F2) | G4 A6 G2 | (F8 =E4) ||[M:4/2] F8 z4 F4 | %52
w: um.|al-|le- * *|lu- * * *|ia, al- le-|lu- *|ia, al-|
 (G6 A2 B4) c4- | c4 !courtesy!=B4 (c6 d2 | e8) c8 | (e12 d2 c2) | B8 z4 B4 | c4 d4 (e6 d2 | %58
w: le- * * lu-|* ia al- *|* le-|lu- * *|ia, al-|le- lu- ia, _|
 c4) B4 G4 A4 | (B6 A2 G2 F2) A4- | A4 G8 F4 | G16- | G16- | G16 |] z30 ||[M:4/2] z16 | z16 | %67
w: _ al- le- lu-|ia, _ _ _ al-|* le- lu-|ia.|_|||||
 (e8 B8) | (c8 e8) | z4 e8 e4 | e8 (f8 | e8) e8 | e8 c6 B2 | c2 d2 e8 d4 | e8 z8 | (e8 B8) | %76
w: Psal- *|mum _|di- ci-|te no-|* mi-|ni e- *||jus.|Da- *|
 c4 e8 d4 | e16 | z4 e8 e4 | (e8 d8 | c8) B8 | (c4 e8) (d2 c2) | (B4 c8 B4) | c16- | c16- | c16 |] %86
w: te glo- ri-|am|lau- di|e- *|* jus,|lau- * di _|e- * *|jus.|_||
 z22 | z22 ||[M:4/2] z16 | z16 | e8 B8 | c8 e8 | z4 e8 e4 | e8 f8 | e8 e8 | e8 (c6 B2 | %96
w: ||||si cut|e- rat|et in|prin- ci-|pio, et|nunc et _|
 c2 d2 e8) d4 | e8 z8 | e8 B8 | (c4 e8) d4 | e16 | z4 e8 e4 | (e8 d8 | c8) B8 | c4 (e8 d2 c2 | %105
w: _ _ _ sem-|per|et in|sae- * cu-|la|sae- cu-|lo- *|* rum.|A- men, _ _|
 B4) (c8 B4) | c16- | c16- | c16 |] %109
w: _ a- *|men.|_||
V:2
 z32 ||[M:4/2] z8 (C8 | E8) E8 | (C4 B,2 A,2 G,4) B,4- | B,2 C2 D2 CD E8 | z4 C4 E6 D2 | %6
w: |an-|* nun-|ti- * * * a-|* * * * * te,|et au- *|
 C2 B,2 C8 A,2 B,2 | C2 D2 E8 D4 | E12 F4 | (G8 E8 | F16) | (F6 E2 _D4) C4- | (C4 B,4) C8 | %13
w: |* * * di-|a- tur,|au- *||di- * * a-|* * tur.|
 z4 (A,8 G,2 F,2 | C8) D4 B,4- | (B,2 C2 D4) E4 D4 | (C4 A,4) B,8 | A,4 E8 (D2 C2 | F8) D8 | %19
w: Al- * *|* le- lu-|* * * ia, al-|le- * lu-|ia. Nun- ti- *|* a-|
 B,8 z8 | z16 | z4 (C6 B,2 A,4) | G,4 (A,8 G,2 F,2 | G,8) A,8 | z4 C8 C4 | C4 C4 (E8 | D8) C4 D4- | %27
w: te,||nun- * *|ti- a- * *|* te|us- que|ad ex- tre-|* mum ter-|
 (D2 C2 B,2 A,2) G,4 C4- | (C4 !courtesy!=B,4) C8- | C16 | z16 | z16 | z4 (F4 B,4) D4 | C8 B,8 | %34
w: * * * * rae, ter-|* * rae:|_|||li- * be-|ra- vit,|
 z8 z4 E4- | E4 E4 E4 C4 | (D4 E4) F8 | (D4 C2 B,2 F8) | z16 | z16 | z4 G8 E4 | F4 D4 C8 | %42
w: li-|* be- ra- vit|Do- * mi-|nus _ _ _|||po- pu-|lum su- um,|
 (B,6 A,2 G,2 F,2 B,4-) | B,4 =A,4 (B,4 D4) | C8 B,8 ||[M:3/2] (G,6 A,2 B,4) | C4 A,8 | B,8 z4 | %48
w: po- * * * *|* pu- lum _|su- um.|Al- * *|le- lu-|ia,|
 z12 | z12 | z12 ||[M:4/2] C8 (C6 D2 | E2 F2 G8) F4 | (G8 E8) | z8 z4 E4- | E4 C4 (E6 F2) | G16 | %57
w: |||al- le- *|* * * lu-|ia, _|al-|* le- lu- *|ia,|
 z4 G8 E4 | (F4 G8) E4 | (F4 G4) E4 F4- | (F4 G4) C8 | z8 D8 | E8 D8 | D16 |] z30 || %65
w: al- le-|lu- * ia,|al- * le- lu-|* * ia,|al-|le- lu-|ia.||
[M:4/2] (E8 B,8) | C4 E8 D4 | (E6 F2 G8 | E8) z4 E4- | E4 E4 (E6 F2 | G8) A8 | G8 z4 E4- | %72
w: Psal- *|mum di- ci-|te _ _|_ no-|* mi- ni _|_ e-|jus, no-|
 E2 F2 G4 (A6 G2 | F4 E4 F8) | E4 B,6 A,2 F,4 | (G,4 E,4) F,8 | z4 (E,4 B,8) | E,8 z4 B,4- | %78
w: * mi- ni e- *||jus, no- mi- ni|e- * jus.|Da- *|te glo-|
 B,4 B,4 (C6 D2 | E8) z8 | z4 (F8 G4 | A16) | F8 z4 (F4 | A12) (G2 F2) | (E6 D2 C6 B,A,) | G,16 |] %86
w: * ri- am, _|_|lau- *||di, lau-|* di _|e- * * * *|jus.|
 z22 | z22 ||[M:4/2] E8 B,8 | C4 E8 D4 | (E6 F2) G8 | E8 z4 E4- | E4 E4 (E6 F2 | G8) A8 | %94
w: ||si- cut|e- rat in|prin- * ci-|pio, et|_ nunc et _|_ sem-|
 G8 z4 E4- | (E2 F2 G4) (A6 G2) | F4 E4 F8 | E4 (B,6 A,2 F,4) | (G,4 E,4) F,8 | z4 E,4 B,8 | %100
w: per et|_ _ _ in _|sae- cu- la|sae- cu- * *|lo- * rum,|sae- cu-|
 E,8 z4 B,4- | B,4 B,4 (C6 D2) | E8 z8 | z4 F8 G4 | A16 | F8 z4 F4 | A12 G2 F2 | E6 D2 C6 B,A, | %108
w: la sae-|* cu- lo- *|rum,|sae- cu-|lo-|rum. A-|||
 G,16 |] %109
w: men.|
V:3
 (G4 A2) (F2 B2 G2) (G2 B2) (B2 c2) (c2 e2 d2) e2 e4 ||[M:4/2] z16 | z16 | (c8 e8) | %4
w: Vo- * cem _ _ ju- * cun- * di- * * ta- tis|||an- *|
 d8 (c4 B2 A2) | (G4 A4 B8) | A16 | z16 | A16 | B16 | c8 _d8 | c6 A2 (B4 A4) | (F8 G8) | F16 | %14
w: nun- ti- * *|a- * *|te||et|au-|di- a-|tur, au- di- *|a- *|tur.|
 z16 | z16 | z16 | z8 A8 | (F8 B8) | (G6 A2) B4 e4- | e4 (d2 c2) d8 | c8 z8 | (c8 f8 | e8) e8 | %24
w: |||Nun-|ti- *|a- * te, nun-|* ti- * a-|te|us- *|* que|
 z4 e8 e4 | (e8 g8 | f8) f8 | (d8 e8 | f8 e8) | e8 f8 | d8 (e6 d2 | c4) (B8 =A4) | B8 z4 (d4 | %33
w: ad ex-|tre- *|* mum|ter- *||rae, ex-|tre- mum _|_ ter- *|rae: li-|
 e8) g8 | g8 g8 | (g6 f2 e2 d2 e4 | f4) B4 (c8 | B8) z8 | (B8 e6) d2 | c4 (B8 !courtesy!=A4) | %40
w: * be-|ra- vit|Do- * * * *|* mi- nus|_|po- * pu-|lum su- *|
 B16 | z16 | z8 (B8 | c4 e8) d4 | e8 f8 ||[M:3/2] e8 e4 | f8 f4 | (g6 f2 e4 | d4) (e6 d2 | %49
w: um,||po-|* * pu-|lum su-|um. Al-|le- lu-|ia, _ _|_ al- *|
 c2 B2 c4) A4 | (B4 G8) ||[M:4/2] F8 f8 | e8 (d4 c4) | (d8 c8) | z8 c8- | c16 | d8 (e6 d2 | %57
w: * * * le-|lu- *|ia, al-|le- lu- *|ia, _|al-||le- lu- *|
 c4) B4 (c6 B2 | A4) G4 c8 | d4 (e6 d2 c2 B2 | c4) G4 A8 | G16- | G16- | G16 |] %64
w: * ia, al- *|* le- lu-|ia, al- * * *|* le- lu-|ia.|_||
 B2 (c2 e2) e2 e2 e2 e2 f2 e2 (d2 c2) e8 ||[M:4/2] z16 | z16 | z16 | z16 | z16 | z16 | z16 | z16 | %73
w: Ju- bi- * la- te De- o o- mnis ter- * ra:|||||||||
 z16 | (e8 B8) | c4 e8 d4 | (e4 g4 f8 | e8) z4 e4- | e4 e4 (e6 d2 | c8) (B8 | c8 d8 | e8) c8 | %82
w: |Da- *|te glo- ri-|am, _ _|_ glo-|* ri- am _|_ lau-||* di|
 d16 | c16- | c16- | c16 |] B2 (c2 e2) e2 e2 e2 e2 e2 e2 e4 | e2 e2 f2 e2 e2 (d2 c2) e8 || %88
w: e-|jus.|_||Glo- ri- * a Pa- tri et Fi- li- o,|et Spi- ri- tu- i San- * cto;|
[M:4/2] z16 | z16 | z16 | z16 | z16 | z16 | z16 | z16 | z16 | e8 B8 | c4 e8 d4 | e4 g4 f8 | %100
w: |||||||||et in|sae- cu- la|sae- cu- lo-|
 e8 z4 e4- | e4 e4 (e6 d2 | c8) B8 | c8 d8 | e8 c8 | d16 | c16- | c16- | c16 |] %109
w: rum, sae-|* cu- lo- *|* rum,|sae- cu-|lo- rum.|A-|men.|_||
V:4
 z32 ||[M:4/2] C,16- | C,16 | C,4 (E,6 F,2 G,2 A,2 | B,8) A,8 | E,4 (F,4 E,8) | %6
w: |an-||nun- ti- * * *|* a-|te _ _|
 z4 (A,6 B,2 C2 D2) | E4 C4 B,8 | A,8 z4 (A,4 | G,4) E,4 (G,8 | F,8) B,,8 | F,8 B,,4 F,4- | %12
w: et _ _ _|au- di- a-|tur, au-|* di- a-|* tur,|au- di- a-|
 (F,2 E,2 _D,4) C,8 | z8 z4 A,4- | A,4 F,4 (B,6 A,2 | G,4 F,4) E,4 (G,4 | A,4) F,4 E,8 | A,16 | %18
w: * * * tur.|Al-|* le- lu- *|* * ia, al-|* le- lu-|ia.|
 z16 | z16 | z16 | z4 (A,6 G,2 F,4) | E,4 (F,8 E,2 D,2) | C,8 z4 A,4- | A,4 A,4 A,4 A,4 | A,8 E,8 | %26
w: |||Nun- * *|ti- a- * *|te us-|* que ad ex-|tre- mum|
 z4 B,4 A,4 B,4- | (B,2 A,2 G,2 F,2 E,4) (C,4 | D,8 C,8) | z4 A,8 F,4 | (G,6 F,2 E,2 D,2 E,4 | %31
w: ter- rae, ter-|* * * * * rae,|_ _|ad ex-|tre- * * * *|
 F,4) B,,4 C,8 | B,,8 (B,8 | A,8) E,8 | E,8 E,8 | z8 z4 (A,4 | F,4) G,4 F,8 | z4 (B,,6 C,2 D,4 | %38
w: * mum ter-|rae: li-|* be-|ra- vit|Do-|* mi- nus|po- * *|
 E,4) D,4 (G,6 F,2 | E,4 D,4) (C,8 | G,8) E,8 | z8 (F,8 | B,,8) E,4 D,4 | C,8 B,,8 | z8 B,,8 || %45
w: * pu- lum _|_ _ su-|* um,|po-|* pu- lum|su- um.|Al-|
[M:3/2] (E,6 F,2 G,4) | (A,4 F,8) | E,8 z4 | z12 | z12 | z12 ||[M:4/2] F,8 F,8 | C,8 G,4 (A,4 | %53
w: le- * *|lu- *|ia,||||al- le-|lu- ia, al-|
 G,8) C,8 | C8 A,4 C4- | (C2 B,2) (A,2 G,2) A,8 | G,16 | z16 | z16 | z8 z4 F,4- | (F,4 E,4) F,8 | %61
w: * le-|lu- ia, al-|* * le- * lu-|ia,|||al-|* * le-|
 (B,12 G,4) | G,16- | G,16 |] z30 ||[M:4/2] z16 | (E,8 B,,8) | (C,8 E,8) | z4 E,8 E,4 | %69
w: lu- *|ia.|_|||Psal- *|mum _|di- ci-|
 (E,6 F,2 G,4) A,4 | G,4 E,8 D,4 | E,16- | E,8 z4 A,4- | (A,2 B,2 C4) B,8 | z4 E,8 D,4 | C,8 B,,8 | %76
w: te _ _ no-|mi- ni e-|jus,|_ e-|* * * jus.|Da- te|glo- ri-|
 E,8 z8 | z4 E,8 E,4 | E,8 (A,6 B,2 | C4) A,4 B,8 | F,8 B,8 | A,16 | B,4 F,4 B,8 | %83
w: am,|glo- ri-|am lau- *|* di e-|jus lau-|di|e- jus, lau-|
 A,4 (F,8 E,2 D,2) | C,16- | C,16 |] z22 | z22 ||[M:4/2] z16 | E,8 B,,8 | C,8 E,8 | z4 E,8 E,4 | %92
w: di e- * *|jus.|_||||si- cut|e- rat|in prin-|
 E,6 F,2 G,4 A,4 | G,4 E,8 D,4 | E,16- | E,8 z4 A,4- | A,2 B,2 C4 B,8 | z4 E,8 D,4 | (C,8 B,,8 | %99
w: ci- pi- o et|nunc et sem-|per|_ et|_ _ _ in|sae- cu-|la, _|
 E,8) z8 | z4 E,8 E,4 | E,8 A,6 B,2 | (C4 A,4 B,8) | F,8 B,8 | A,16 | B,4 F,4 B,8 | %106
w: _|sae- cu-|la sae- cu-|lo- * *|rum, sae-|cu-|lo- rum. A-|
 A,4 (F,8 E,2 D,2) | C,16- | C,16 |] %109
w: men, a- * *|men.|_|

